X:476
T: Hochzeitslied (186), S. 405
N: T0364
O: Luxemburg
S: Singendes Volk, Esch-Alzette, 1937 posth.]
N: Heffingen, fff Anna Kimmel, 1907
R: Hochzeits-, Ehestandslied, religises Lied]
M: 4/4
L: 1/8
K: G
D2 | D2G2G2B2 | B2AGA2
AB | c2B2B2AG | A2z4
AB | c4B4 | A4z2
AB | c2c2d2B2 | B2A2c2
A2 | B2B2d2B2 | B2A2c2
A2 | B4A4 | G2B2d2
c2 | B4A4 | G4z2

@@@ Tune index: 8530
